X: 219
T:DENIS MURPHY'S SLIDE
E:12
M:12/8
R:slide
Z: From the playing of Padraig O'Keefe
K:D
dB|A2 D FED F2 AA2 f|gfe fed e2d B2d|A2D FED F2 AA2 f|a2f e2f d3 d2:|
A|d2e f2a a2f fef|g3 faf e2d BAB|d2e f2f gfe f2f|a2f e2f d3 d2A|
d2e f2f gfe f2f|gfe fed e2d BAB|d2e f2f gfe f2f|a2f e2f d3 d2||
